X: 430
T: The Banks of Claudy
N:"Slow with feeling" "collected by J.O'Neill"
N:Irish title: brua.ca na g-.claudiag
B:O'Neill's 430
Z:Transcribed by henrik.norbeck@mailbox.swipnet.se
M:C
L:1/8
K:Dm
(fe) | (d3 {ed}c) (d2 DE) | (~F2 F).A c2 (dc) | A2 (GF/E/) D2 D2 | D6 (FG) |
(AB/A/ GA) (d2 e2) | (f3 d) (e2 dc) | A2 (B/A/G) A2 ^c2 | d6 (FG) |
(AB/A/ GA) (d2 e2) | (f3 d) f{gf}e d{ed}c | A2 G2 A.d .^c.e | d6 (fe) |
(d3 {ed}c) (d2 DE) | (~F2 F).A c2 (dc) | A2 (GF/E/) D2 D2 | D6 ||


